!!!!SEGMENT: pl-sa--549-a-ix-29--028_anonim--valc-szymanowskiego.krn
!!!cenid: 18xx:482
!!!COM: Anonim
!!!COM-rismid: pe30004985
!!!CDT:
!!!CNT:
!!!OTL: Valc Szymanowskiego
!!!PDT:
!!!AGN: Secular; Waltz
!!!SMS-siglum: PL-SA
!!!SMS-shelfmark: 549/A IX 29
!!!SMS-shelfwork: 028 W
!!!SMS-variant:
!!!SMS-altvar:
!!!NIFC-rismid: 1001068908
!!!system-decoration: [(s1,s2)]
!!!AIN: 1 piano
!!!key:
**kern	**kern
*part1	*part1
*staff2	*staff1
*Ipiano	*Ipiano
*I"Piano	*I"Piano
*clefF4	*clefG2
*k[b-e-a-]	*k[b-e-a-]
*E-:	*E-:
*M3/4	*M3/4
*>[A,A,B,B,C,C,D,D]	*>[A,A,B,B,C,C,D,D]
*>A	*>A
!LO:TX:a:t=P:problem=w źródle brak metrum	!
!	!LO:TX:a:t=P:problem=w źródle brak metrum
!LO:TX:a:t=P:problem=w źrodle znaki przy kluczu w kolejności [BB- AA- E-]	!
!	!LO:TX:a:Bi:t=Valc Szymanowskiego:rj
!LO:N:vis=4	!
4.r	8bb-L 8b-\
.	8aan 8an\
.	8bb-J 8b-\
=1	=1
4E- 4EE-/	8cccL 8cc\
.	8bb- 8b-\
4B- 4G 4E-\	8gg 8g\
.	8b-\
4B- 4G 4E-\	8ee- 8g\
.	8b-\J
=2	=2
4BB- 4BBB-/	8ddL 8a-\
.	8b-\
4B- 4A- 4F\	8dd 8a-\
.	8bb- 8b-\
4B- 4A- 4F\	8aan 8an\
.	8bb-J 8b-\
=3	=3
*rep	*
4BB- 4BBB-/	8cccL 8cc\
.	8bb- 8b-\
4B- 4A- 4F\	8aa-X 8a-X\
.	8b-\
4B- 4A- 4F\	8dd 8a-\
.	8b-\J
*Xrep	*
=4	=4
4E- 4EE-/	8ee-L 8g\
.	8b-\
4B- 4G 4E-\	8ee- 8b- 8g\
.	8eee- 8ee-\
4B- 4G 4E-\	8ddd 8dd\
.	8cccJ 8cc\
=5	=5
*rep	*
4E- 4EE-/	8cccL 8cc\
.	8bb- 8b-\
!	!LO:TX:a:t=P:problem=w źródle skreślona nuta
!	!LO:TX:a:t=g
4B- 4G 4E-\	8gg 8g\
.	8b-\
4B- 4G 4E-\	8ee- 8g\
.	8b-\J
*Xrep	*
=6	=6
4BB- 4BBB-/	8ddL 8a-\
.	8b-\
4B- 4A- 4F\	8dd 8a-\
.	8bb- 8b-\
4B- 4A- 4F\	8aan 8an\
.	8bb-J 8b-\
=7	=7
*rep	*
4BB- 4BBB-/	8cccL 8cc\
.	8bb- 8b-\
4B- 4A- 4F\	8aa- 8a-\
.	8gg 8g\
4B- 4A- 4F\	8aa- 8a-\
.	8ffJ 8f\
*Xrep	*
=8	=8
4B- 4G 4E-\	4ee- 4g\
!LO:N:vis=4	!LO:N:vis=4
8r	8r
!!LO:LB:g=original
=:|!|:	=:|!|:
*>B	*>B
!LO:N:vis=4	!
4.r	8eee-L 8ee-\
!	!LO:SIC:n=1:v:s=8ddd
.	8bb- 8dd\
.	8eee-J 8ee-\
=9	=9
4A- 4AA-/	8bb-L 8b-\
.	8ccc 8cc\
4e- 4c 4A-\	8aa- 8a-\
.	8eee- 8ee-\
4e- 4c 4A-\	8ddd 8dd\
.	8cccJ 8cc\
=10	=10
4E- 4EE-/	8cccL 8cc\
.	8bb- 8b-\
4B- 4G 4E-\	8gg 8g\
.	8b-\
4B- 4G 4E-\	8ee- 8g\
.	8b-\J
=11	=11
*rep	*
4E- 4EE-/	8cccL 8cc\
.	8bb- 8b-\
4B- 4G 4E-\	8gg 8g\
.	8b-\
4B- 4G 4E-\	8ee- 8g\
.	8b-\J
*Xrep	*
=12	=12
4BB- 4BBB-/	8cccL 8cc\
.	8bb- 8b-\
4B- 4A- 4F\	8aa- 8a-\
.	8b-\
4B- 4A- 4F\	8ff 8a-\
.	8b-\J
=13	=13
4E- 4EE-/	8cccL 8cc\
.	8bb- 8b-\
4B- 4G 4E-\	8gg 8g\
.	8eee- 8ee-\
4B- 4G 4E-\	8ddd 8dd\
.	8eee-J 8ee-\
=14	=14
4A- 4AA-/	8bbnL 8gg 8bn\
.	8ccc 8cc\
4e- 4c 4A-\	8aa- 8a-\
.	8eee- 8ee-\
4e- 4c 4A-\	8ddd 8dd\
.	8cccJ 8cc\
=15	=15
4E- 4EE-/	8cccL 8cc\
.	8bb-X 8b-\
4B- 4G 4E-\	8aa- 8a-\
.	8b-\
4B- 4G 4E-\	8ee- 8g\
.	8b-\J
=16	=16
4BB- 4BBB-/	8cccL 8cc\
.	8bb- 8b-\
4B- 4A- 4F\	8aa- 8a-\
.	8b-\
4B- 4A- 4F\	8dd 8a-\
.	8b-\J
!!LO:LB:g=original
=17	=17
!LO:SIC:n=3:v:s=4BB-\	!
4G 4E- 4C\	4ee- 4g\
!LO:N:vis=4	!LO:N:vis=4
8r	8r
=:|!|:	=:|!|:
*>C	*>C
*8ba	*
!LO:TX:a:t=P:problem=w źródle na końcu przenośnika oktawowego 'O'	!
!LO:N:vis=4	!
8GGG/L	8G/L
8AAA-/	8A-/
8AAAn/J	8An/J
=18	=18
!	!LO:TX:a:t=P:problem=mixed beam
4BBB-/	8B-/L
.	8gg 8ee-\
*X8ba	*
!LO:N:vis=4	!
2r	8ff 8dd\
.	8ee- 8cc\
.	8dd 8b-\
.	8ccJ 8a-\
=19	=19
4r	8ccL 8a-/
.	8b- 8g/
4B- 4G 4E-\	8g 8e-/
.	8b-/
4B- 4G 4E-\	8g 8e-/
.	8b-/J
=20	=20
4r	8ccL 8a-/
.	8b-J 8g/
4B- 4A- 4F\	8a-L 8f 8d/
.	8b-/
4B- 4A- 4F\	8a- 8f 8d/
.	8b-/J
=21	=21
!LO:N:vis=4	!
4.r	8ccL 8a-/
.	8b-J 8g/
.	8gL 8e-/
8GG/L	8G/
8AA-/	8A-/
8AAn/J	8An/J
=22	=22
!	!LO:TX:a:t=P:problem=mixed beam
4BB-/	8B-/L
.	8gg 8ee-\
!LO:N:vis=4	!
2r	8ff 8dd\
.	8ee- 8cc\
.	8dd 8b-\
.	8ccJ 8a-\
=23	=23
4r	8ccL 8a-/
.	8b-J 8g/
4B- 4G 4E-\	8gL 8e-/
.	8b-/
4B- 4G 4E-\	8g 8e-/
.	8b-/J
=24	=24
4r	8ccL 8a-/
.	8b- 8g/
4B- 4F 4BB-\	8a- 8f 8d/
.	8b-/
4d 4F 4BB-\	8a- 8f 8d/
.	8b-/J
=25	=25
4B- 4G 4E-\	4b- 4g 4e-/
!LO:N:vis=4	!LO:N:vis=4
8r	8r
!!LO:LB:g=original
=:|!|:	=:|!|:
*>D	*>D
!LO:N:vis=4	!
4.r	8b-\L
.	8an\
.	8b-\J
=26	=26
4BB- 4BBB-/	8a-X\L
.	8b-\
4B- 4A- 4F\	8dd 8a-\
.	8b-\
4B- 4A- 4F\	8ff 8a-\
.	8b-\J
=27	=27
4E- 4EE-/	8g\L
.	8b-\
4B- 4G 4E-\	8ee- 8g\
.	8b-\
4B- 4G 4E-\	8gg 8g\
.	8b-\J
=28	=28
4BB- 4BBB-/	8b-\L
.	8bb-\
4B- 4A- 4F\	8aa- 8ff\
.	8b-\
4B- 4A- 4F\	8ff 8dd\
.	8b-\J
=29	=29
4E- 4EE-/	8cc\L
.	8ccc\
4B- 4G 4E-\	8bb- 8gg\
.	8b-\
4B- 4G 4E-\	8gg 8ee-\
.	8b-\J
=30	=30
4BB- 4BBB-/	8a-\L
.	8b-\
4B- 4A- 4F\	8dd 8a-\
.	8b-\
4B- 4A- 4F\	8ff 8a-\
.	8b-\J
=31	=31
4E- 4EE-/	8g\L
.	8b-\
4B- 4G 4E-\	8ee- 8g\
.	8b-\
4B- 4G 4E-\	8gg 8g\
.	8b-\J
=32	=32
4BB- 4BBB-/	8b-\L
.	8bb-\
4B- 4A- 4F\	8aa- 8ff\
.	8b-\
4B- 4A- 4F\	8ff 8a-\
.	8b-\J
=33	=33
4B- 4G 4E-\	4ee- 4b- 4g\
!LO:N:vis=4	!LO:N:vis=4
8r	8r
==;	==;
*-	*-
!!title: @{OTL};
!!!RDF**kern: > = above
!!!RDF**kern: < = below
!!!RDF**kern: | = vertical stroke
!!!RDF**kern: N = linked
!!!RDF**kern: i = editorial accidental
!!!RDF**kern: l = terminal long
!!!ENC: Andrzej Kubiczek
!!!END: 2020-06-17
!!!EED: Wojciech Jakubiak-Danek
!!!EEV: 2022-01-04
!!!URL-scan: http://bc.bdsandomierz.pl/dlibra/publication/1441/edition/1409/content
!!!ONB-nifc: Str. 21
